symbols/web/event_busy/materialsymbolsrounded/event_busy_wght600gradN25_20px.svg

<svg xmlns="http://www.w3.org/2000/svg" height="20" width="20"><path d="m10.021 13.708-1.188 1.188q-.291.292-.635.281-.344-.01-.636-.302-.291-.292-.291-.646 0-.354.291-.646l1.167-1.166-1.187-1.167q-.292-.292-.282-.646.011-.354.302-.646.292-.291.646-.291.354 0 .646.291l1.167 1.167 1.167-1.167q.291-.291.635-.291.344 0 .635.291.292.292.292.646 0 .354-.292.646l-1.166 1.167 1.187 1.187q.292.292.292.636 0 .343-.292.635-.291.292-.646.292-.354 0-.645-.292Zm-5.542 4.813q-.917 0-1.552-.636-.635-.635-.635-1.552V5.375q0-.917.635-1.552t1.552-.635h.625v-.792q0-.375.302-.667.302-.291.656-.291.376 0 .667.291.292.292.292.667v.792h5.958v-.792q0-.375.302-.667.302-.291.657-.291.374 0 .666.291.292.292.292.667v.792h.625q.917 0 1.552.635t.635 1.552v10.958q0 .917-.635 1.552-.635.636-1.552.636Zm0-2.188h11.042V8.417H4.479v7.916Zm0-9.562h11.042V5.375H4.479Zm0 0V5.375v1.396Z"/></svg>

<svg xmlns="http://www.w3.org/2000/svg" height="20" width="20"><path d="M10.021 13.708 8.833 14.896Q8.542 15.188 8.198 15.177Q7.854 15.167 7.562 14.875Q7.271 14.583 7.271 14.229Q7.271 13.875 7.562 13.583L8.729 12.417L7.542 11.25Q7.25 10.958 7.26 10.604Q7.271 10.25 7.562 9.958Q7.854 9.667 8.208 9.667Q8.562 9.667 8.854 9.958L10.021 11.125L11.188 9.958Q11.479 9.667 11.823 9.667Q12.167 9.667 12.458 9.958Q12.75 10.25 12.75 10.604Q12.75 10.958 12.458 11.25L11.292 12.417L12.479 13.604Q12.771 13.896 12.771 14.24Q12.771 14.583 12.479 14.875Q12.188 15.167 11.833 15.167Q11.479 15.167 11.188 14.875ZM4.479 18.521Q3.562 18.521 2.927 17.885Q2.292 17.25 2.292 16.333V5.375Q2.292 4.458 2.927 3.823Q3.562 3.188 4.479 3.188H5.104V2.396Q5.104 2.021 5.406 1.729Q5.708 1.438 6.062 1.438Q6.438 1.438 6.729 1.729Q7.021 2.021 7.021 2.396V3.188H12.979V2.396Q12.979 2.021 13.281 1.729Q13.583 1.438 13.938 1.438Q14.312 1.438 14.604 1.729Q14.896 2.021 14.896 2.396V3.188H15.521Q16.438 3.188 17.073 3.823Q17.708 4.458 17.708 5.375V16.333Q17.708 17.25 17.073 17.885Q16.438 18.521 15.521 18.521ZM4.479 16.333H15.521Q15.521 16.333 15.521 16.333Q15.521 16.333 15.521 16.333V8.417H4.479V16.333Q4.479 16.333 4.479 16.333Q4.479 16.333 4.479 16.333ZM4.479 6.771H15.521V5.375Q15.521 5.375 15.521 5.375Q15.521 5.375 15.521 5.375H4.479Q4.479 5.375 4.479 5.375Q4.479 5.375 4.479 5.375ZM4.479 6.771V5.375Q4.479 5.375 4.479 5.375Q4.479 5.375 4.479 5.375Q4.479 5.375 4.479 5.375Q4.479 5.375 4.479 5.375V6.771Z"/></svg>
